svgs/solid/circle-q.svg

<svg xmlns="http://www.w3.org/2000/svg" viewBox="0 0 512 512"><!-- Font Awesome Pro 6.0.0-alpha2 by @fontawesome - https://fontawesome.com License - https://fontawesome.com/license (Commercial License) --><path d="M256 16C123.451 16 16 123.451 16 256S123.451 496 256 496S496 388.549 496 256S388.549 16 256 16ZM376.969 343.031C386.344 352.406 386.344 367.594 376.969 376.969C372.281 381.656 366.156 384 360 384S347.719 381.656 343.031 376.969L327.879 361.816C307.371 375.791 282.639 384 256 384C185.406 384 128 326.578 128 256S185.406 128 256 128S384 185.422 384 256C384 282.635 375.789 307.369 361.814 327.877L376.969 343.031ZM256 176C211.875 176 176 211.891 176 256S211.875 336 256 336C269.307 336 281.67 332.424 292.719 326.656L263.031 296.969C253.656 287.594 253.656 272.406 263.031 263.031S287.594 253.656 296.969 263.031L326.656 292.719C332.426 281.67 336 269.305 336 256C336 211.891 300.125 176 256 176Z"/></svg>

<svg xmlns="http://www.w3.org/2000/svg" viewBox="0 0 512 512"><!--! Font Awesome Pro 6.0.0-alpha3 by @fontawesome - https://fontawesome.com License - https://fontawesome.com/license (Commercial License) --><path d="M256 176C211.9 176 176 211.9 176 256s35.88 80 80 80c13.31 0 25.67-3.576 36.72-9.344l-29.69-29.69c-9.375-9.375-9.375-24.56 0-33.94s24.56-9.375 33.94 0l29.69 29.69C332.4 281.7 336 269.3 336 256C336 211.9 300.1 176 256 176zM256 0C114.6 0 0 114.6 0 256s114.6 256 256 256s256-114.6 256-256S397.4 0 256 0zM376.1 343c9.375 9.375 9.375 24.56 0 33.94C372.3 381.7 366.2 384 360 384s-12.28-2.344-16.97-7.031l-15.15-15.15C307.4 375.8 282.6 384 256 384c-70.59 0-128-57.42-128-128s57.41-128 128-128s128 57.42 128 128c0 26.63-8.211 51.37-22.19 71.88L376.1 343z"/></svg>
